X:4023
T:Marriage of Rosina  - Finale. CJF.083
O:england
M:2/4
L:1/8
Q:180
S: C.J.Fox MS, 1829/33, Beverley,E.Yorks.
R:Air
A:East Yorkshire
B:Kidson Coll.Mitchell Lib.M1805
K:D
(A/G/)|F/G/F/E/ Dd|Be cA|B/A/B/c/ dB|AFGE|\
F/G/F/E/ Dd|Be cA|df f/e/d/c/|d2zh||(c/d/)|ec/c/ dB/B/|
cA/A/ BG/G/|Ac Be|cA A c/d/|ec dB|cA BG|\
Ac Ae|A2z||d|.c.B .A.G|.F.E .D.d|c/c/ B/B/ A/A/ G/G/|
F/F/ E/E/ DF|GB Ec|d/c/d/e/ fA|Be d/c/B/A/|d2||
